X: 871
T: Alex Dan MacIsaac's
R: strathspey
M: 4/4
K: Adorian
|:G/|A2 A<B (3GGG G<B|A>Bc>A d2 G>E|A2 A<B G>AB<d|(3cBA (3BAG A>GE3/2:|
a/|g>ee<g e>dB<g|e>de>g a>ba<e|g<ee>g G>AB<d|c>AB>G A>GE>a|
g2 e<g e>dB<g|e>de<g a2 g>a|g<be<g G2 (3Bcd|c<AB>G A>GE3/2||

